X: 30552
T: On The Top Of Cork Road
R: jig
M: 6/8
K: Dmajor
"D"dAF DFA|"G"Bed "A"cBA|"D"d2d "A"efg|"D"fdf "A"ecA|
"D"dAF DFA|"G"Bed "A"cBA|"D"d2d "A"efg|1 "D"fdd d3:|2 fdd d2||
|:g|"D"fdf fga|"A"ecA ABc|"Bm"d2d fed|"A"cAA A2c|
"G"BGB Bcd|"D"AFD DFA|"G"dcd "A"efg|1 "D"fdd d2:|2 "D"fdd d3||

